src/lib/assets/images/logos/office.svg

<svg xmlns:xlink="http://www.w3.org/1999/xlink" xmlns="http://www.w3.org/2000/svg" width="316.22776601683796" height="316.22776601683796" viewBox="0 0 73 73" fill="none">
                    <g clip-path="url(#clip0_27_174114)">
                        <g clip-path="url(#clip1_27_174114)">
                            <path d="M53.1574 10.3146C52.1706 7.19669 49.2773 5.07764 46.007 5.07764L43.5352 5.07764C39.9228 5.07764 36.8237 7.65268 36.1621 11.2039L32.4891 30.9179L33.5912 27.2788C34.5491 24.1158 37.4644 21.9526 40.7692 21.9526H52.2499L58.8326 24.2562L62.3337 21.9644C59.0634 21.9644 56.1701 19.8336 55.1833 16.7157L53.1574 10.3146Z" fill="url(#paint0_radial_27_174114)"/>
                            <path d="M20.615 62.8082C21.5914 65.9426 24.4927 68.0777 27.7757 68.0777H32.6415C36.7421 68.0777 40.0824 64.7845 40.1408 60.6844L40.3984 42.5737L39.4114 45.86C38.459 49.0313 35.5396 51.2027 32.2284 51.2027H20.75L14.8141 48.4965L11.4807 51.2027C14.7636 51.2027 17.665 53.3378 18.6414 56.4722L20.615 62.8082Z" fill="url(#paint1_radial_27_174114)"/>
                            <path d="M45.5 5.07764H19.25C11.75 5.07764 7.25001 14.7496 4.25002 24.4216C0.695797 35.8804 -3.95498 51.2056 9.50001 51.2056H20.931C24.2656 51.2056 27.1975 49.0121 28.135 45.812C30.1073 39.0797 33.5545 27.3661 36.2631 18.446C37.6417 13.906 38.79 10.007 40.5523 7.57888C41.5404 6.21761 43.1871 5.07764 45.5 5.07764Z" fill="url(#paint2_linear_27_174114)"/>
                            <path d="M45.5 5.07764H19.25C11.75 5.07764 7.25001 14.7496 4.25002 24.4216C0.695797 35.8804 -3.95498 51.2056 9.50001 51.2056H20.931C24.2656 51.2056 27.1975 49.0121 28.135 45.812C30.1073 39.0797 33.5545 27.3661 36.2631 18.446C37.6417 13.906 38.79 10.007 40.5523 7.57888C41.5404 6.21761 43.1871 5.07764 45.5 5.07764Z" fill="url(#paint3_linear_27_174114)"/>
                            <path d="M27.4946 68.0776H53.7446C61.2446 68.0776 65.7446 58.4071 68.7446 48.7365C72.2988 37.2794 76.9496 21.9565 63.4946 21.9565H52.0633C48.7288 21.9565 45.797 24.1499 44.8594 27.3499C42.8871 34.0812 39.44 45.7927 36.7314 54.7113C35.3529 59.2506 34.2046 63.149 32.4422 65.5768C31.4542 66.9378 29.8075 68.0776 27.4946 68.0776Z" fill="url(#paint4_radial_27_174114)"/>
                            <path d="M27.4946 68.0776H53.7446C61.2446 68.0776 65.7446 58.4071 68.7446 48.7365C72.2988 37.2794 76.9496 21.9565 63.4946 21.9565H52.0633C48.7288 21.9565 45.797 24.1499 44.8594 27.3499C42.8871 34.0812 39.44 45.7927 36.7314 54.7113C35.3529 59.2506 34.2046 63.149 32.4422 65.5768C31.4542 66.9378 29.8075 68.0776 27.4946 68.0776Z" fill="url(#paint5_linear_27_174114)"/>
                            <rect x="24.125" y="51.2031" width="48.375" height="21.375" rx="3.63727" fill="black"/>
                            <path fill-rule="evenodd" clip-rule="evenodd" d="M27.0683 55.2876V68.3192H29.479V58.9306L32.1221 64.1367H33.7293L36.3143 58.9266V68.3192H38.8025V55.2876H36.0239L33.0046 61.3343L30.0019 55.2876H27.0683ZM45.0813 68.4839C43.6484 68.4839 42.5317 68.1418 41.7314 67.4576C40.9375 66.7734 40.5405 65.7439 40.5405 64.3691H42.9222C42.9222 65.021 43.1094 65.5309 43.4838 65.8988C43.8646 66.2668 44.3939 66.4507 45.0716 66.4507C45.6783 66.4507 46.143 66.2958 46.4657 65.986C46.7949 65.6762 46.9595 65.1856 46.9595 64.5144C46.9595 63.8689 46.7594 63.401 46.3592 63.1105C45.9655 62.8136 45.4524 62.6652 44.8198 62.6652H44.0356V60.7095H44.8876C45.4556 60.7095 45.9074 60.5546 46.2431 60.2447C46.5787 59.9349 46.7465 59.5251 46.7465 59.0152C46.7465 58.4988 46.5948 58.118 46.2915 57.8727C45.9946 57.6274 45.5847 57.5048 45.0619 57.5048C44.4874 57.5048 44.0421 57.6662 43.7258 57.9889C43.4095 58.3052 43.2514 58.7408 43.2514 59.2959H40.8794C40.8794 58.4246 41.0601 57.7081 41.4216 57.1466C41.7895 56.5851 42.2897 56.1655 42.9222 55.888C43.5548 55.604 44.2648 55.462 45.0522 55.462C45.7816 55.462 46.4561 55.5814 47.0757 55.8202C47.6953 56.059 48.1923 56.4237 48.5667 56.9142C48.9475 57.4048 49.1379 58.0341 49.1379 58.8022C49.1379 59.5832 48.9507 60.2028 48.5763 60.661C48.2084 61.1193 47.7114 61.442 47.0854 61.6292C47.776 61.7712 48.3472 62.0939 48.799 62.5974C49.2573 63.0944 49.4864 63.7947 49.4864 64.6983C49.4864 65.9247 49.0895 66.8638 48.2956 67.5157C47.5081 68.1611 46.4367 68.4839 45.0813 68.4839ZM52.875 67.8448C53.5914 68.2773 54.4047 68.4935 55.3148 68.4935C56.2313 68.4935 57.0058 68.3128 57.6384 67.9513C58.2774 67.5899 58.7614 67.0929 59.0906 66.4603C59.4198 65.8213 59.5844 65.0887 59.5844 64.2626C59.5844 63.4041 59.423 62.6845 59.1003 62.1036C58.7776 61.5162 58.3387 61.0741 57.7836 60.7772C57.235 60.4738 56.6153 60.3221 55.9247 60.3221C55.3438 60.3221 54.8339 60.4157 54.395 60.6029C53.9625 60.7901 53.5785 61.0386 53.2429 61.3484C53.2007 61.388 53.1589 61.4283 53.1174 61.4691C53.1613 60.2186 53.3483 59.2715 53.6785 58.6278C54.0658 57.8791 54.6144 57.5047 55.3244 57.5047C55.7633 57.5047 56.1183 57.6274 56.3894 57.8727C56.667 58.1115 56.8541 58.4761 56.951 58.9667H59.3327C59.1648 57.8436 58.7389 56.9819 58.0547 56.3817C57.3705 55.7749 56.4604 55.4716 55.3244 55.4716C54.4015 55.4716 53.5817 55.7072 52.8653 56.1784C52.1488 56.6431 51.5873 57.3627 51.1807 58.3374C50.774 59.3055 50.5707 60.548 50.5707 62.0648C50.5707 63.5881 50.7773 64.8241 51.1904 65.7729C51.6034 66.7153 52.165 67.4059 52.875 67.8448ZM53.1251 63.3296C53.2967 63.1623 53.4877 63.0086 53.6979 62.8684C54.2207 62.5134 54.8113 62.3359 55.4697 62.3359C55.9667 62.3359 56.3539 62.5102 56.6315 62.8587C56.909 63.2008 57.0478 63.6784 57.0478 64.2916C57.0478 64.9177 56.9026 65.4373 56.6121 65.8504C56.3281 66.2635 55.8957 66.47 55.3148 66.47C54.9404 66.47 54.5822 66.3506 54.2401 66.1118C53.9045 65.8665 53.6301 65.4696 53.4171 64.9209C53.2601 64.4988 53.1627 63.9683 53.1251 63.3296ZM62.9053 68.0676C63.583 68.3516 64.3382 68.4935 65.1708 68.4935C65.997 68.4935 66.7393 68.329 67.3976 67.9998C68.0624 67.6706 68.5885 67.1801 68.9757 66.5282C69.363 65.8698 69.5566 65.0469 69.5566 64.0593C69.5566 63.0718 69.3727 62.2747 69.0048 61.6679C68.6433 61.0612 68.1689 60.6191 67.5816 60.3416C66.9942 60.0576 66.3649 59.9156 65.6936 59.9156C65.1773 59.9156 64.7287 59.9995 64.3479 60.1673C63.9735 60.3286 63.6895 60.5191 63.4959 60.7385L63.7283 57.7565H68.5788V55.6362H61.7241L61.1723 62.6555H63.3894C63.5701 62.4296 63.7993 62.2424 64.0768 62.0939C64.3543 61.9455 64.6932 61.8713 65.0934 61.8713C65.6614 61.8713 66.1229 62.0455 66.4779 62.3941C66.8393 62.7362 67.02 63.2912 67.02 64.0593C67.02 64.892 66.849 65.5019 66.5069 65.8892C66.1713 66.2764 65.7259 66.4701 65.1708 66.4701C64.5835 66.4701 64.1026 66.3055 63.7283 65.9763C63.3539 65.6407 63.1667 65.1824 63.1667 64.6015H60.6979C60.6979 65.4729 60.8947 66.199 61.2885 66.7799C61.6886 67.3543 62.2276 67.7836 62.9053 68.0676Z" fill="white"/>
                        </g>
                    </g>
                    <defs>
                        <radialGradient id="paint0_radial_27_174114" cx="0" cy="0" r="1" gradientUnits="userSpaceOnUse" gradientTransform="translate(59.4363 31.0868) rotate(-130.285) scale(27.6431 26.1575)">
                            <stop offset="0.0955758" stop-color="#00AEFF"/>
                            <stop offset="0.773185" stop-color="#2253CE"/>
                            <stop offset="1" stop-color="#0736C4"/>
                        </radialGradient>
                        <radialGradient id="paint1_radial_27_174114" cx="0" cy="0" r="1" gradientUnits="userSpaceOnUse" gradientTransform="translate(15.3608 50.9716) rotate(50.2556) scale(25.0142 24.5538)">
                            <stop offset="0" stop-color="#FFB657"/>
                            <stop offset="0.633728" stop-color="#FF5F3D"/>
                            <stop offset="0.923392" stop-color="#C02B3C"/>
                        </radialGradient>
                        <linearGradient id="paint2_linear_27_174114" x1="17.6789" y1="10.6669" x2="21.2461" y2="52.961" gradientUnits="userSpaceOnUse">
                            <stop offset="0.156162" stop-color="#0D91E1"/>
                            <stop offset="0.487484" stop-color="#52B471"/>
                            <stop offset="0.652394" stop-color="#98BD42"/>
                            <stop offset="0.937361" stop-color="#FFC800"/>
                        </linearGradient>
                        <linearGradient id="paint3_linear_27_174114" x1="20.9521" y1="5.07764" x2="22.8995" y2="51.2097" gradientUnits="userSpaceOnUse">
                            <stop offset="0" stop-color="#3DCBFF"/>
                            <stop offset="0.246674" stop-color="#0588F7" stop-opacity="0"/>
                        </linearGradient>
                        <radialGradient id="paint4_radial_27_174114" cx="0" cy="0" r="1" gradientUnits="userSpaceOnUse" gradientTransform="translate(64.843 17.441) rotate(109.722) scale(61.4524 75.0539)">
                            <stop offset="0.0661714" stop-color="#8C48FF"/>
                            <stop offset="0.5" stop-color="#F2598A"/>
                            <stop offset="0.895833" stop-color="#FFB152"/>
                        </radialGradient>
                        <linearGradient id="paint5_linear_27_174114" x1="66.9168" y1="19.1407" x2="66.8913" y2="31.7025" gradientUnits="userSpaceOnUse">
                            <stop offset="0.0581535" stop-color="#F8ADFA"/>
                            <stop offset="0.708063" stop-color="#A86EDD" stop-opacity="0"/>
                        </linearGradient>
                        <clipPath id="clip0_27_174114">
                            <rect width="72" height="72" fill="white" transform="translate(0.5 0.578125)"/>
                        </clipPath>
                        <clipPath id="clip1_27_174114">
                            <rect width="72" height="72" fill="white" transform="translate(0.5 0.578125)"/>
                        </clipPath>
                    </defs>
                </svg>

<svg xmlns="http://www.w3.org/2000/svg" width="316.228" height="316.228" fill="none" viewBox="0 0 73 73"><g clip-path="url(#a)"><g clip-path="url(#b)"><path fill="url(#c)" d="M53.157 10.315a7.5 7.5 0 0 0-7.15-5.237h-2.472a7.5 7.5 0 0 0-7.373 6.126L32.49 30.918l1.102-3.64a7.5 7.5 0 0 1 7.178-5.325h11.48l6.584 2.303 3.5-2.292a7.51 7.51 0 0 1-7.15-5.248z"/><path fill="url(#d)" d="M20.615 62.808a7.5 7.5 0 0 0 7.16 5.27h4.867a7.5 7.5 0 0 0 7.499-7.394l.257-18.11-.987 3.286a7.5 7.5 0 0 1-7.183 5.343H20.75l-5.936-2.707-3.333 2.707a7.5 7.5 0 0 1 7.16 5.27z"/><path fill="url(#e)" d="M45.5 5.078H19.25c-7.5 0-12 9.672-15 19.344C.696 35.88-3.955 51.206 9.5 51.206h11.431a7.5 7.5 0 0 0 7.204-5.394c1.972-6.732 5.42-18.446 8.128-27.366 1.379-4.54 2.527-8.439 4.29-10.867.987-1.361 2.634-2.501 4.947-2.501"/><path fill="url(#f)" d="M45.5 5.078H19.25c-7.5 0-12 9.672-15 19.344C.696 35.88-3.955 51.206 9.5 51.206h11.431a7.5 7.5 0 0 0 7.204-5.394c1.972-6.732 5.42-18.446 8.128-27.366 1.379-4.54 2.527-8.439 4.29-10.867.987-1.361 2.634-2.501 4.947-2.501"/><path fill="url(#g)" d="M27.495 68.078h26.25c7.5 0 12-9.67 15-19.342 3.554-11.457 8.205-26.78-5.25-26.78H52.063a7.5 7.5 0 0 0-7.204 5.394c-1.972 6.731-5.419 18.443-8.128 27.361-1.378 4.54-2.526 8.438-4.289 10.866-.988 1.36-2.634 2.5-4.947 2.5"/><path fill="url(#h)" d="M27.495 68.078h26.25c7.5 0 12-9.67 15-19.342 3.554-11.457 8.205-26.78-5.25-26.78H52.063a7.5 7.5 0 0 0-7.204 5.394c-1.972 6.731-5.419 18.443-8.128 27.361-1.378 4.54-2.526 8.438-4.289 10.866-.988 1.36-2.634 2.5-4.947 2.5"/><rect width="48.375" height="21.375" x="24.125" y="51.203" fill="#000" rx="3.637"/><path fill="#fff" fill-rule="evenodd" d="M27.068 55.288v13.031h2.411v-9.388l2.643 5.206h1.607l2.585-5.21v9.392h2.489V55.288h-2.78l-3.018 6.046-3.003-6.046zm18.013 13.196q-2.15 0-3.35-1.026-1.19-1.027-1.19-3.089h2.381q0 .978.562 1.53.57.552 1.588.552.91 0 1.394-.465.493-.465.493-1.472 0-.968-.6-1.403-.59-.446-1.54-.446h-.783V60.71h.852q.852 0 1.355-.464.504-.465.503-1.23 0-.774-.455-1.142-.444-.369-1.23-.368-.861 0-1.335.484-.474.474-.475 1.307H40.88q0-1.307.543-2.15a3.37 3.37 0 0 1 1.5-1.258q.95-.426 2.13-.426 1.094 0 2.024.358a3.34 3.34 0 0 1 1.49 1.094q.572.736.572 1.888 0 1.171-.562 1.859-.552.687-1.49.968 1.035.213 1.713.968.687.746.687 2.101 0 1.84-1.19 2.818-1.182.968-3.215.968m7.794-.64q1.075.65 2.44.65 1.374 0 2.323-.543a3.6 3.6 0 0 0 1.453-1.49q.493-.96.493-2.198 0-1.289-.484-2.16a3.2 3.2 0 0 0-1.316-1.326q-.823-.455-1.86-.455-.87 0-1.529.28a4.1 4.1 0 0 0-1.278.867q.066-1.875.562-2.841.58-1.123 1.645-1.123.66 0 1.065.368.417.358.562 1.094h2.382q-.252-1.685-1.278-2.585-1.027-.91-2.73-.91-1.385 0-2.46.706-1.074.697-1.684 2.16-.61 1.452-.61 3.727 0 2.285.62 3.708.618 1.413 1.684 2.072m.25-4.514q.258-.251.573-.462a3.1 3.1 0 0 1 1.772-.532q.745 0 1.162.523.416.513.416 1.433 0 .939-.436 1.558-.426.62-1.297.62a1.85 1.85 0 0 1-1.075-.358q-.504-.368-.823-1.191-.235-.633-.292-1.591m9.78 4.738q1.017.425 2.266.425 1.239 0 2.227-.493.996-.495 1.578-1.472.58-.987.58-2.469 0-1.48-.551-2.391-.543-.91-1.423-1.326a4.3 4.3 0 0 0-1.888-.426q-.775 0-1.346.251-.561.242-.852.572l.232-2.982h4.85v-2.12h-6.854l-.552 7.019h2.217q.271-.34.688-.562t1.016-.223q.852 0 1.385.523.542.513.542 1.665 0 1.25-.513 1.83-.504.58-1.336.581-.881 0-1.443-.494-.561-.503-.561-1.374h-2.47q0 1.306.591 2.178.6.861 1.617 1.288" clip-rule="evenodd"/></g></g><defs><radialGradient id="c" cx="0" cy="0" r="1" gradientTransform="rotate(229.715 36.92 1.775)scale(27.6431 26.1575)" gradientUnits="userSpaceOnUse"><stop offset=".096" stop-color="#00aeff"/><stop offset=".773" stop-color="#2253ce"/><stop offset="1" stop-color="#0736c4"/></radialGradient><radialGradient id="d" cx="0" cy="0" r="1" gradientTransform="rotate(50.256 -46.657 41.861)scale(25.0142 24.5538)" gradientUnits="userSpaceOnUse"><stop offset="0" stop-color="#ffb657"/><stop offset=".634" stop-color="#ff5f3d"/><stop offset=".923" stop-color="#c02b3c"/></radialGradient><radialGradient id="g" cx="0" cy="0" r="1" gradientTransform="rotate(109.722 26.284 31.54)scale(61.4524 75.0539)" gradientUnits="userSpaceOnUse"><stop offset=".066" stop-color="#8c48ff"/><stop offset=".5" stop-color="#f2598a"/><stop offset=".896" stop-color="#ffb152"/></radialGradient><linearGradient id="e" x1="17.679" x2="21.246" y1="10.667" y2="52.961" gradientUnits="userSpaceOnUse"><stop offset=".156" stop-color="#0d91e1"/><stop offset=".487" stop-color="#52b471"/><stop offset=".652" stop-color="#98bd42"/><stop offset=".937" stop-color="#ffc800"/></linearGradient><linearGradient id="f" x1="20.952" x2="22.899" y1="5.078" y2="51.21" gradientUnits="userSpaceOnUse"><stop offset="0" stop-color="#3dcbff"/><stop offset=".247" stop-color="#0588f7" stop-opacity="0"/></linearGradient><linearGradient id="h" x1="66.917" x2="66.891" y1="19.141" y2="31.703" gradientUnits="userSpaceOnUse"><stop offset=".058" stop-color="#f8adfa"/><stop offset=".708" stop-color="#a86edd" stop-opacity="0"/></linearGradient><clipPath id="a"><path fill="#fff" d="M.5.578h72v72H.5z"/></clipPath><clipPath id="b"><path fill="#fff" d="M.5.578h72v72H.5z"/></clipPath></defs></svg>
